packages/icons/svg/24/ImgContain.svg

<svg width="24" height="24" viewBox="0 0 24 24" fill="none" xmlns="http://www.w3.org/2000/svg">
<path fill-rule="evenodd" clip-rule="evenodd" d="M7 9C7 8.44772 7.44772 8 8 8H16C16.5523 8 17 8.44772 17 9V16C17 16.5523 16.5523 17 16 17H8C7.44772 17 7 16.5523 7 16V9ZM12.587 12.5163C12.7942 12.2573 13.1915 12.2681 13.3843 12.538L14.9353 14.7094C15.1717 15.0403 14.9351 15.5 14.5284 15.5H9.5C9.08798 15.5 8.85279 15.0296 9.1 14.7L9.6541 13.9612C9.83666 13.7178 10.1925 13.6925 10.4077 13.9076L11 14.5L12.587 12.5163Z" fill="#858585"/>
<path fill-rule="evenodd" clip-rule="evenodd" d="M7 2C5.34315 2 4 3.34315 4 5V19C4 20.6569 5.34315 22 7 22H17C18.6569 22 20 20.6569 20 19V5C20 3.34315 18.6569 2 17 2H7ZM6 5C6 4.44772 6.44772 4 7 4H17C17.5523 4 18 4.44772 18 5V19C18 19.5523 17.5523 20 17 20H7C6.44772 20 6 19.5523 6 19V5Z" fill="#858585"/>
</svg>

<svg width="24" height="24" fill="none" xmlns="http://www.w3.org/2000/svg" viewBox="0 0 24 24"><path fill-rule="evenodd" clip-rule="evenodd" d="M7 9a1 1 0 011-1h8a1 1 0 011 1v7a1 1 0 01-1 1H8a1 1 0 01-1-1V9zm5.587 3.516a.5.5 0 01.797.022l1.551 2.171a.5.5 0 01-.407.791H9.5a.5.5 0 01-.4-.8l.554-.739a.5.5 0 01.754-.053L11 14.5l1.587-1.984z" fill="currentColor"></path><path fill-rule="evenodd" clip-rule="evenodd" d="M7 2a3 3 0 00-3 3v14a3 3 0 003 3h10a3 3 0 003-3V5a3 3 0 00-3-3H7zM6 5a1 1 0 011-1h10a1 1 0 011 1v14a1 1 0 01-1 1H7a1 1 0 01-1-1V5z" fill="currentColor"></path></svg>
